X: 212
T: A Good Night's Sleep
R: jig
M: 6/8
K: Gmixolydian
A|DGD CA,C|DGG G2A|BDD GDB|~C3 FGA|
DGD CA,C|DGG Bdg|ege cAE|FGF F2:|
|:f|dfd cA^F|DGG G2_B,|C_EG ~_e3|FAc fgf|
dfd cA^F|DGG Bdg|ege cAE|FGF F2:|

